puzzlebang-2023-simple-logo.svg

<svg viewBox="0 0 750 750" xmlns="http://www.w3.org/2000/svg" xml:space="preserve" style="fill-rule:evenodd;clip-rule:evenodd;stroke-linecap:round;stroke-linejoin:round;stroke-miterlimit:1.5"><circle cx="441.129" cy="441.129" r="441.129" style="fill:#ffc12f;stroke:#000;stroke-width:4px" transform="matrix(.69444 0 0 .69444 69.135 68.66)"/><circle cx="540.684" cy="540" r="365" style="fill:#fff19f;stroke:#000;stroke-width:4px" transform="matrix(.69444 0 0 .69444 0 0)"/><path d="M553 69.862H196s-7.503-11.204-11.059-15.794c-12.417-16.032-30.114-14.474-38.452-3-8.338 11.474-11.203 29.968 2.671 51.895-14.684 22.073-11.009 40.421-2.671 51.894 8.338 11.474 23.606 14.179 38.452-3 3.754-4.343 11.059-14.995 11.059-14.995h357V137h357s7.305 10.652 11.059 14.996c14.846 17.178 30.114 14.473 38.452 3 8.338-11.474 12.013-29.822-2.671-51.895 13.874-21.927 11.009-40.421 2.671-51.895-8.338-11.474-26.035-13.032-38.452 3C917.503 58.796 910 70 910 70H553" style="fill:#fff;stroke:#000;stroke-width:3.56px" transform="rotate(45 58.598 103.435) scale(.85784 .69445)"/><path d="M553 69.862H196s-7.503-11.204-11.059-15.794c-12.417-16.032-30.114-14.474-38.452-3-8.338 11.474-11.203 29.968 2.671 51.895-14.684 22.073-11.009 40.421-2.671 51.894 8.338 11.474 23.606 14.179 38.452-3 3.754-4.343 11.059-14.995 11.059-14.995h357V137h357s7.305 10.652 11.059 14.996c14.846 17.178 30.114 14.473 38.452 3 8.338-11.474 12.013-29.822-2.671-51.895 13.874-21.927 11.009-40.421 2.671-51.895-8.338-11.474-26.035-13.032-38.452 3C917.503 58.796 910 70 910 70H553" style="fill:#fff;stroke:#000;stroke-width:3.56px" transform="rotate(-45 790.837 343.258) scale(.85784 .69445)"/><path d="m375 0-65.845 375h132.64L375 0Z"/><path d="M750 374.525 375 308.68V441.32l375-66.794Z"/><path d="m375.951 750 65.845-375h-132.64l66.795 375Z"/><path d="m0 375.472 375 65.844V308.678L0 375.472Z"/><ellipse cx="536.589" cy="663.22" rx="105.589" ry="18.22" style="stroke:#000;stroke-width:3.93px" transform="matrix(.72017 0 0 .69444 -11.087 0)"/><path d="M536.427 762s62.426-1 88.426-17c13.679-8.417 26.121-42.226 35-53 8.879-10.774 12.115-25.803-2-31.047-14.114-5.243-56.772 19.26-75 23.047-19.111 3.97-46.426 5-46.426 5s-27.685-1.03-46.427-5c-18.213-3.858-60.885-28.29-75-23.047-14.115 5.244-10.879 20.273-2 31.047 8.879 10.774 21.322 44.583 35 53 26 16 88.427 17 88.427 17" style="fill:#fff;stroke:#000;stroke-width:4px" transform="matrix(.69444 0 0 .69444 2.957 -5.535)"/><path d="m537.427 673 3.257 35L544 673h-6.573Z" style="stroke:#000;stroke-width:4.22px" transform="matrix(.6587 0 0 .6587 19.776 23.926)"/><path d="M514.783 670.62 518 692l-8.217-21 5-.38Z" style="stroke:#000;stroke-width:3.27px" transform="matrix(-.6587 0 0 1.00662 732.493 -208.263)"/><path d="m519 672-1 20-4-21 5 1Z" style="stroke:#000;stroke-width:3.27px" transform="matrix(-.6587 0 0 1.00662 750.278 -209.928)"/><path d="m519 672-1 20-4-21 5 1Z" style="stroke:#000;stroke-width:3.05px" transform="matrix(-.52696 0 0 1.1744 701.007 -331.406)"/><path d="M520.318 672 518 692l-4-21 6.318 1Z" style="stroke:#000;stroke-width:3.46px" transform="matrix(-.52696 0 0 1.00662 716.815 -223.362)"/><path d="M521.109 672 518 692l-4-21 7.109 1Z" style="stroke:#000;stroke-width:3.27px" transform="matrix(.6587 0 0 1.00662 18.458 -208.263)"/><path d="m519 672-1 20-4-21 5 1Z" style="stroke:#000;stroke-width:3.27px" transform="matrix(.6587 0 0 1.00662 .673 -209.928)"/><path d="m519 672-1 20-4-21 5 1Z" style="stroke:#000;stroke-width:3.05px" transform="matrix(.52696 0 0 1.1744 49.944 -331.406)"/><path d="m519 672-1 20-4-21 5 1Z" style="stroke:#000;stroke-width:3.46px" transform="matrix(.52696 0 0 1.00662 34.136 -223.362)"/><path d="M709 368.523c-41.326-22.032-62.568-46.433-150.356-46.433-79.505 0-151.644 46.433-151.644 46.433s-12.912 46.22-24 82.477c-11.088 36.257-13.968 58.09 4.249 89 18.217 30.91 40.969 76.821 60.988 82 20.018 5.179 60.43 18.192 109.763 18.192 49.333 0 89.745-13.013 109.763-18.192 20.019-5.179 42.771-51.09 60.988-82 18.217-30.91 15.337-52.743 4.249-89-11.088-36.257-24-82.477-24-82.477" style="fill:#fff;stroke:#000;stroke-width:3.56px" transform="matrix(.81728 0 0 .73996 -81.093 -11.252)"/><path d="M540.684 175C622.549 175 706.26 277.603 741 302.5c30 21.5 27 27.5-7 31.5-46.12 5.426-120.12 80.847-194 82-73.88-1.153-212-85-212-85s-24.154-3.306 10.37-28.5c30.148-22 118.934-127.5 200.798-127.5" style="fill:#a53232;stroke:#000;stroke-width:4px" transform="matrix(.69444 0 0 .69444 0 12.5)"/><path d="M338 430c-234-8-42.577-100.184.37-127.5 42.948-27.316 39.612-70.124 87.63-69.5 24.03.312 67.89 134 113.925 134 45.956 0 94.086-133.688 118.074-134 48.017-.624 44.682 42.184 87.629 69.5C788.576 329.816 981 419 742 430c0-39.859-51.261-10-202.074-10C389.114 420 338 386.814 338 430Z" style="fill:#fff;stroke:#000;stroke-width:4px" transform="matrix(.69444 0 0 .69444 0 12.5)"/><path d="M334.926 422.84c-234-8-39.503-93.024 3.444-120.34 42.948-27.316 39.618-68.502 87.63-69.5 15.704-.326 63.576 133.559 113.598 133.814 49.247.251 100.634-133.125 118.401-133.814 47.985-1.862 44.682 42.184 87.629 69.5 42.948 27.316 238.814 109.34-.186 120.34 0-39.859-54.703-2.84-205.516-2.84-150.812 0-205-40.346-205 2.84Z" style="fill:#a00b0b;stroke:#000;stroke-width:4px" transform="translate(7.087 22.848) scale(.68173)"/><path d="m537.427 673 3.257 33.946L544 673h-6.573Z" style="stroke:#000;stroke-width:4.22px" transform="matrix(.6587 0 0 -.6587 19.304 906.637)"/><path d="m519 672-1 20-4-21 5 1Z" style="stroke:#000;stroke-width:3.27px" transform="matrix(-.6587 0 0 -1.00662 732.02 1136.742)"/><path d="m519 672-1 20-4-21 5 1Z" style="stroke:#000;stroke-width:3.27px" transform="matrix(-.6587 0 0 -1.00662 749.805 1135.63)"/><path d="M521.636 672 518 690.226l-5.318-18.043 8.954-.183Z" style="stroke:#000;stroke-width:3.05px" transform="matrix(-.52696 0 0 -1.1744 700.534 1245.303)"/><path d="m519 672-1 20-4-21 5 1Z" style="stroke:#000;stroke-width:3.46px" transform="matrix(-.52696 0 0 -1.00662 716.343 1128.925)"/><path d="m519 672-1 19.31-7.163-20.31 8.163 1Z" style="stroke:#000;stroke-width:3.27px" transform="matrix(.6587 0 0 -1.00662 17.986 1136.048)"/><path d="m519 672-1 20-6.109-21 7.109 1Z" style="stroke:#000;stroke-width:3.27px" transform="matrix(.6587 0 0 -1.00662 .201 1135.63)"/><path d="m519 672-1 18.226L514 671l5 1Z" style="stroke:#000;stroke-width:3.05px" transform="matrix(.52696 0 0 -1.1744 49.472 1245.997)"/><path d="m519 672-1 21.38-6.636-22.38 7.636 1Z" style="stroke:#000;stroke-width:3.46px" transform="matrix(.52696 0 0 -1.00662 33.663 1128.925)"/><path d="M541.791 605.085s20.777 8.502 26.135 1c10-14-3.192-22.959-5-32-9-45-22.926-41.1-22.926-41.1l-.074-.085S526 529 517 574c-1.808 9.041-15 18-5 32 5.359 7.502 26.135-1 26.135-1" style="stroke:#000;stroke-width:4px" transform="matrix(.69444 0 0 .69444 0 -.694)"/><path d="M375 466s14.761-26.353 43-26c28.239.353 63.463 12.726 68.112 32 4.649 19.274-.302 41.803-11.112 49.215-10.81 7.412-67.862 10.04-79 0-11.138-10.04-24.159-41.821-21-55.215Z" style="stroke:#000;stroke-width:4px" transform="matrix(.69444 0 0 .69444 5.026 3.544)"/><path d="M375 466s14.761-26.353 43-26c28.239.353 63.463 12.726 68.112 32 4.649 19.274-.302 41.803-11.112 49.215-10.81 7.412-67.862 10.04-79 0-11.138-10.04-24.159-41.821-21-55.215Z" style="stroke:#000;stroke-width:4px" transform="matrix(-.69444 0 0 .69444 744.868 3.544)"/><text x="1199.59" y="760.062" style="font-family:'BodoniSvtyTwoITCTT-Book','Bodoni 72';font-size:96px;fill:#fff" transform="matrix(.69444 0 0 .69444 -496.415 -323.035)">P<tspan x="1257.57" y="760.062">B</tspan></text><text x="1199.59" y="760.062" style="font-family:'BodoniSvtyTwoITCTT-Book','Bodoni 72';font-size:72px;fill:#fff" transform="matrix(.69444 0 0 .69444 -408.382 -260.642)">&apos;<tspan x="1232.42px 1278px" y="760.062px 760.062px">23</tspan></text><text x="241.176" y="647.26" style="font-family:'BodoniSvtyTwoITCTT-Book','Bodoni 72';font-size:32px;fill:#3c0000" transform="rotate(33.783 285.892 563.544)">W</text><text x="265.63" y="663.235" style="font-family:'BodoniSvtyTwoITCTT-Book','Bodoni 72';font-size:32px;fill:#3c0000" transform="rotate(29.922 319.102 570.764)">I</text><text x="274.251" y="668.324" style="font-family:'BodoniSvtyTwoITCTT-Book','Bodoni 72';font-size:32px;fill:#3c0000" transform="rotate(27.081 335.724 567.852)">T</text><text x="290.949" y="676.943" style="font-family:'BodoniSvtyTwoITCTT-Book','Bodoni 72';font-size:32px;fill:#3c0000" transform="rotate(22.963 367.452 561.441)">H</text><text x="317.527" y="687.827" style="font-family:'BodoniSvtyTwoITCTT-Book','Bodoni 72';font-size:32px;fill:#3c0000" transform="rotate(17.536 424.455 541.898)">A</text><text x="335.879" y="693.666" style="font-family:'BodoniSvtyTwoITCTT-Book','Bodoni 72';font-size:32px;fill:#3c0000" transform="rotate(13.616 479.72 510.826)">C</text><text x="356.187" y="698.655" style="font-family:'BodoniSvtyTwoITCTT-Book','Bodoni 72';font-size:32px;fill:#3c0000" transform="rotate(9.103 581.634 434.209)">M</text><text x="497.925" y="692.236" style="font-family:'BodoniSvtyTwoITCTT-Book','Bodoni 72';font-size:32px;fill:#3c0000" transform="rotate(-18.655 359.706 791.456)">R</text><text x="515.734" y="686.203" style="font-family:'BodoniSvtyTwoITCTT-Book','Bodoni 72';font-size:32px;fill:#3c0000" transform="rotate(-22.085 396.312 766.626)">|</text><text x="531.197" y="679.927" style="font-family:'BodoniSvtyTwoITCTT-Book','Bodoni 72';font-size:32px;fill:#3c0000" transform="rotate(-25.403 425.18 746.946)">P</text></svg>

<?xml version="1.0" encoding="UTF-8" standalone="no"?>
<!DOCTYPE svg PUBLIC "-//W3C//DTD SVG 1.1//EN" "http://www.w3.org/Graphics/SVG/1.1/DTD/svg11.dtd">
<svg width="100%" height="100%" viewBox="0 0 750 750" version="1.1" xmlns="http://www.w3.org/2000/svg" xmlns:xlink="http://www.w3.org/1999/xlink" xml:space="preserve" xmlns:serif="http://www.serif.com/" style="fill-rule:evenodd;clip-rule:evenodd;stroke-linecap:round;stroke-linejoin:round;stroke-miterlimit:1.5;">
    <g id="Compass" transform="matrix(0.694444,0,0,0.694444,4.42769e-15,0)">
        <g transform="matrix(1,0,0,1,99.5548,98.8705)">
            <circle cx="441.129" cy="441.129" r="441.129" style="fill:rgb(255,193,47);stroke:black;stroke-width:4px;"/>
        </g>
        <g>
            <circle cx="540.684" cy="540" r="365" style="fill:rgb(255,241,159);stroke:black;stroke-width:4px;"/>
        </g>
        <g>
            <g>
                <g transform="matrix(0.873485,0.873485,-0.707107,0.707107,130.036,-16.0412)">
                    <path d="M553,69.862L196,69.862C196,69.862 188.497,58.658 184.941,54.068C172.524,38.036 154.827,39.594 146.489,51.068C138.151,62.542 135.286,81.036 149.16,102.963C134.476,125.036 138.151,143.384 146.489,154.857C154.827,166.331 170.095,169.036 184.941,151.857C188.695,147.514 196,136.862 196,136.862L553,136.862L553,137L910,137C910,137 917.305,147.652 921.059,151.996C935.905,169.174 951.173,166.469 959.511,154.996C967.849,143.522 971.524,125.174 956.84,103.101C970.714,81.174 967.849,62.68 959.511,51.206C951.173,39.732 933.476,38.174 921.059,54.206C917.503,58.796 910,70 910,70L553,70" style="fill:white;stroke:black;stroke-width:3.56px;"/>
                </g>
                <g transform="matrix(0.873485,-0.873485,0.707107,0.707107,-15.9721,950.033)">
                    <path d="M553,69.862L196,69.862C196,69.862 188.497,58.658 184.941,54.068C172.524,38.036 154.827,39.594 146.489,51.068C138.151,62.542 135.286,81.036 149.16,102.963C134.476,125.036 138.151,143.384 146.489,154.857C154.827,166.331 170.095,169.036 184.941,151.857C188.695,147.514 196,136.862 196,136.862L553,136.862L553,137L910,137C910,137 917.305,147.652 921.059,151.996C935.905,169.174 951.173,166.469 959.511,154.996C967.849,143.522 971.524,125.174 956.84,103.101C970.714,81.174 967.849,62.68 959.511,51.206C951.173,39.732 933.476,38.174 921.059,54.206C917.503,58.796 910,70 910,70L553,70" style="fill:white;stroke:black;stroke-width:3.56px;"/>
                </g>
            </g>
            <path d="M540,-0L445.184,540L636.184,540L540,-0Z"/>
            <g transform="matrix(6.12323e-17,1,-1,6.12323e-17,1080,-0.68434)">
                <path d="M540,-0L445.184,540L636.184,540L540,-0Z"/>
            </g>
            <g transform="matrix(-1,1.22465e-16,-1.22465e-16,-1,1081.37,1080)">
                <path d="M540,-0L445.184,540L636.184,540L540,-0Z"/>
            </g>
            <g transform="matrix(-1.83697e-16,-1,1,-1.83697e-16,1.13687e-13,1080.68)">
                <path d="M540,-0L445.184,540L636.184,540L540,-0Z"/>
            </g>
        </g>
    </g>
    <g id="Head" transform="matrix(0.694444,0,0,0.694444,4.42769e-15,0)">
        <g transform="matrix(1.03704,0,0,1,-15.9654,0)">
            <ellipse cx="536.589" cy="663.22" rx="105.589" ry="18.22" style="stroke:black;stroke-width:3.93px;"/>
        </g>
        <g id="jaw" transform="matrix(1,0,0,1,4.25773,-7.97013)">
            <path d="M536.427,762C536.427,762 598.853,761 624.853,745C638.532,736.583 650.974,702.774 659.853,692C668.732,681.226 671.968,666.197 657.853,660.953C643.739,655.71 601.081,680.213 582.853,684C563.742,687.97 536.427,689 536.427,689C536.427,689 508.742,687.97 490,684C471.787,680.142 429.115,655.71 415,660.953C400.885,666.197 404.121,681.226 413,692C421.879,702.774 434.322,736.583 448,745C474,761 536.427,762 536.427,762" style="fill:white;stroke:black;stroke-width:4px;"/>
        </g>
        <g id="teeth" transform="matrix(-0.948533,0,0,1.44954,1054.79,-299.899)">
            <g transform="matrix(-1,0,0,0.654368,1082,230.661)">
                <path d="M537.427,673L540.684,708L544,673L537.427,673Z" style="stroke:black;stroke-width:4.22px;"/>
            </g>
            <path d="M514.783,670.62L518,692L509.783,671L514.783,670.62Z" style="stroke:black;stroke-width:3.27px;"/>
            <g transform="matrix(1,0,0,1,-27,-1.65437)">
                <path d="M519,672L518,692L514,671L519,672Z" style="stroke:black;stroke-width:3.27px;"/>
            </g>
            <g transform="matrix(0.8,0,0,1.16667,47.8,-122.333)">
                <path d="M519,672L518,692L514,671L519,672Z" style="stroke:black;stroke-width:3.05px;"/>
            </g>
            <g transform="matrix(0.8,0,0,1,23.8,-15)">
                <path d="M520.318,672L518,692L514,671L520.318,672Z" style="stroke:black;stroke-width:3.46px;"/>
            </g>
            <g transform="matrix(-1,0,0,1,1084,0)">
                <path d="M521.109,672L518,692L514,671L521.109,672Z" style="stroke:black;stroke-width:3.27px;"/>
            </g>
            <g transform="matrix(-1,0,0,1,1111,-1.65437)">
                <path d="M519,672L518,692L514,671L519,672Z" style="stroke:black;stroke-width:3.27px;"/>
            </g>
            <g transform="matrix(-0.8,0,0,1.16667,1036.2,-122.333)">
                <path d="M519,672L518,692L514,671L519,672Z" style="stroke:black;stroke-width:3.05px;"/>
            </g>
            <g transform="matrix(-0.8,0,0,1,1060.2,-15)">
                <path d="M519,672L518,692L514,671L519,672Z" style="stroke:black;stroke-width:3.46px;"/>
            </g>
        </g>
        <g id="head" transform="matrix(1.17688,0,0,1.06555,-116.774,-16.2028)">
            <path d="M709,368.523C667.674,346.491 646.432,322.09 558.644,322.09C479.139,322.09 407,368.523 407,368.523C407,368.523 394.088,414.743 383,451C371.912,487.257 369.032,509.09 387.249,540C405.466,570.91 428.218,616.821 448.237,622C468.255,627.179 508.667,640.192 558,640.192C607.333,640.192 647.745,627.179 667.763,622C687.782,616.821 710.534,570.91 728.751,540C746.968,509.09 744.088,487.257 733,451C721.912,414.743 709,368.523 709,368.523" style="fill:white;stroke:black;stroke-width:3.56px;"/>
        </g>
        <g id="hat-middle" serif:id="hat middle" transform="matrix(1,0,0,1,0,18)">
            <path d="M540.684,175C622.549,175 706.26,277.603 741,302.5C771,324 768,330 734,334C687.88,339.426 613.88,414.847 540,416C466.12,414.847 328,331 328,331C328,331 303.846,327.694 338.37,302.5C368.518,280.5 457.304,175 539.168,175" style="fill:rgb(165,50,50);stroke:black;stroke-width:4px;"/>
        </g>
        <g id="hat-front" serif:id="hat front" transform="matrix(1,0,0,1,0,18)">
            <path d="M338,430C104,422 295.423,329.816 338.37,302.5C381.318,275.184 377.982,232.376 426,233C450.03,233.312 493.89,367 539.925,367C585.881,367 634.011,233.312 657.999,233C706.016,232.376 702.681,275.184 745.628,302.5C788.576,329.816 981,419 742,430C742,390.141 690.739,420 539.926,420C389.114,420 338,386.814 338,430Z" style="fill:white;stroke:black;stroke-width:4px;"/>
            <g transform="matrix(0.981693,0,0,0.981693,10.2049,14.9013)">
                <path d="M334.926,422.84C100.926,414.84 295.423,329.816 338.37,302.5C381.318,275.184 377.988,233.998 426,233C441.704,232.674 489.576,366.559 539.598,366.814C588.845,367.065 640.232,233.689 657.999,233C705.984,231.138 702.681,275.184 745.628,302.5C788.576,329.816 984.442,411.84 745.442,422.84C745.442,382.981 690.739,420 539.926,420C389.114,420 334.926,379.654 334.926,422.84Z" style="fill:rgb(160,11,11);stroke:black;stroke-width:4px;"/>
            </g>
        </g>
        <g id="teeth1" serif:id="teeth" transform="matrix(-0.948533,0,0,-1.44954,1054.11,1604.91)">
            <g transform="matrix(-1,0,0,0.654368,1082,206.515)">
                <path d="M537.427,673L540.684,706.946L544,673L537.427,673Z" style="stroke:black;stroke-width:4.22px;"/>
            </g>
            <g transform="matrix(1,0,0,1,0,-22.0759)">
                <path d="M519,672L518,692L514,671L519,672Z" style="stroke:black;stroke-width:3.27px;"/>
            </g>
            <g transform="matrix(1,0,0,1,-27,-20.9708)">
                <path d="M519,672L518,692L514,671L519,672Z" style="stroke:black;stroke-width:3.27px;"/>
            </g>
            <g transform="matrix(0.8,0,0,1.16667,47.8,-129.922)">
                <path d="M521.636,672L518,690.226L512.682,672.183L521.636,672Z" style="stroke:black;stroke-width:3.05px;"/>
            </g>
            <g transform="matrix(0.8,0,0,1,23.8,-14.3101)">
                <path d="M519,672L518,692L514,671L519,672Z" style="stroke:black;stroke-width:3.46px;"/>
            </g>
            <g transform="matrix(-1,0,0,1,1084,-21.3861)">
                <path d="M519,672L518,691.31L510.837,671L519,672Z" style="stroke:black;stroke-width:3.27px;"/>
            </g>
            <g transform="matrix(-1,0,0,1,1111,-20.9708)">
                <path d="M519,672L518,692L511.891,671L519,672Z" style="stroke:black;stroke-width:3.27px;"/>
            </g>
            <g transform="matrix(-0.8,0,0,1.16667,1036.2,-130.612)">
                <path d="M519,672L518,690.226L514,671L519,672Z" style="stroke:black;stroke-width:3.05px;"/>
            </g>
            <g transform="matrix(-0.8,0,0,1,1060.2,-14.3101)">
                <path d="M519,672L518,693.38L511.364,671L519,672Z" style="stroke:black;stroke-width:3.46px;"/>
            </g>
        </g>
        <g id="nose" transform="matrix(1,0,0,1,0,-1)">
            <path d="M541.791,605.085C541.791,605.085 562.568,613.587 567.926,606.085C577.926,592.085 564.734,583.126 562.926,574.085C553.926,529.085 540,532.985 540,532.985L539.926,532.9C539.926,532.9 526,529 517,574C515.192,583.041 502,592 512,606C517.359,613.502 538.135,605 538.135,605" style="stroke:black;stroke-width:4px;"/>
        </g>
        <g id="left-eye" serif:id="left eye" transform="matrix(1,0,0,1,7.23789,5.10371)">
            <path d="M375,466C375,466 389.761,439.647 418,440C446.239,440.353 481.463,452.726 486.112,472C490.761,491.274 485.81,513.803 475,521.215C464.19,528.627 407.138,531.255 396,521.215C384.862,511.175 371.841,479.394 375,466Z" style="stroke:black;stroke-width:4px;"/>
        </g>
        <g id="right-eye" serif:id="right eye" transform="matrix(-1,0,0,1,1072.61,5.10371)">
            <path d="M375,466C375,466 389.761,439.647 418,440C446.239,440.353 481.463,452.726 486.112,472C490.761,491.274 485.81,513.803 475,521.215C464.19,528.627 407.138,531.255 396,521.215C384.862,511.175 371.841,479.394 375,466Z" style="stroke:black;stroke-width:4px;"/>
        </g>
    </g>
    <g transform="matrix(0.694444,0,0,0.694444,-496.415,-323.035)">
        <g transform="matrix(96,0,0,96,1312.39,760.062)">
        </g>
        <text x="1199.59px" y="760.062px" style="font-family:'BodoniSvtyTwoITCTT-Book', 'Bodoni 72';font-size:96px;fill:white;">P<tspan x="1257.57px " y="760.062px ">B</tspan></text>
    </g>
    <g transform="matrix(0.694444,0,0,0.694444,-408.382,-260.642)">
        <g transform="matrix(72,0,0,72,1316.37,760.062)">
        </g>
        <text x="1199.59px" y="760.062px" style="font-family:'BodoniSvtyTwoITCTT-Book', 'Bodoni 72';font-size:72px;fill:white;">&apos;<tspan x="1232.42px 1278px " y="760.062px 760.062px ">23</tspan></text>
    </g>
    <g transform="matrix(1,0,0,1,-39,-39)">
        <g transform="matrix(0.831149,0.55605,-0.55605,0.831149,400.632,-24.8152)">
            <text x="241.176px" y="647.26px" style="font-family:'BodoniSvtyTwoITCTT-Book', 'Bodoni 72';font-size:32px;fill:rgb(60,0,0);">W</text>
        </g>
        <g transform="matrix(0.866702,0.498827,-0.498827,0.866702,366.248,-44.0953)">
            <text x="265.63px" y="663.235px" style="font-family:'BodoniSvtyTwoITCTT-Book', 'Bodoni 72';font-size:32px;fill:rgb(60,0,0);">I</text>
        </g>
        <g transform="matrix(0.890367,0.455243,-0.455243,0.890367,334.317,-51.5806)">
            <text x="274.251px" y="668.324px" style="font-family:'BodoniSvtyTwoITCTT-Book', 'Bodoni 72';font-size:32px;fill:rgb(60,0,0);">T</text>
        </g>
        <g transform="matrix(0.920755,0.390141,-0.390141,0.920755,287.16,-59.8667)">
            <text x="290.949px" y="676.943px" style="font-family:'BodoniSvtyTwoITCTT-Book', 'Bodoni 72';font-size:32px;fill:rgb(60,0,0);">H</text>
        </g>
        <g transform="matrix(0.953527,0.301308,-0.301308,0.953527,222.004,-63.7079)">
            <text x="317.527px" y="687.827px" style="font-family:'BodoniSvtyTwoITCTT-Book', 'Bodoni 72';font-size:32px;fill:rgb(60,0,0);">A</text>
        </g>
        <g transform="matrix(0.971897,0.235408,-0.235408,0.971897,172.734,-59.5743)">
            <text x="335.879px" y="693.666px" style="font-family:'BodoniSvtyTwoITCTT-Book', 'Bodoni 72';font-size:32px;fill:rgb(60,0,0);">C</text>
        </g>
        <g transform="matrix(0.987405,0.158215,-0.158215,0.987405,115.024,-47.5544)">
            <text x="356.187px" y="698.655px" style="font-family:'BodoniSvtyTwoITCTT-Book', 'Bodoni 72';font-size:32px;fill:rgb(60,0,0);">M</text>
        </g>
        <g transform="matrix(0.94746,-0.319875,0.319875,0.94746,-195.268,195.644)">
            <text x="497.925px" y="692.236px" style="font-family:'BodoniSvtyTwoITCTT-Book', 'Bodoni 72';font-size:32px;fill:rgb(60,0,0);">R</text>
        </g>
        <g transform="matrix(0.926627,-0.375982,0.375982,0.926627,-220.159,244.256)">
            <text x="515.734px" y="686.203px" style="font-family:'BodoniSvtyTwoITCTT-Book', 'Bodoni 72';font-size:32px;fill:rgb(60,0,0);">|</text>
        </g>
        <g transform="matrix(0.903314,-0.42898,0.42898,0.903314,-240.316,293.613)">
            <text x="531.197px" y="679.927px" style="font-family:'BodoniSvtyTwoITCTT-Book', 'Bodoni 72';font-size:32px;fill:rgb(60,0,0);">P</text>
        </g>
    </g>
</svg>
